Icons/Line/si_Globe_detailed.svg

<svg width="24" height="24" viewBox="0 0 24 24" fill="none" xmlns="http://www.w3.org/2000/svg">
<path d="M18.92 4.78998C20.81 6.60998 22 9.15998 22 12C22 14.84 20.82 17.39 18.92 19.21" stroke="black" stroke-width="1.5" stroke-miterlimit="10" stroke-linejoin="round"/>
<path d="M12 2.27001C13.51 3.36001 14.76 4.78001 15.63 6.44001C16.82 6.06001 17.93 5.50001 18.92 4.79001C17.2 3.14001 14.89 2.10001 12.34 2.01001C12.22 2.09001 12.11 2.18001 12 2.26001V2.27001Z" stroke="black" stroke-width="1.5" stroke-miterlimit="10" stroke-linejoin="round"/>
<path d="M12 21.73C12.11 21.81 12.23 21.9 12.34 21.98C14.89 21.89 17.2 20.86 18.92 19.2C17.92 18.49 16.82 17.93 15.63 17.55C14.76 19.21 13.51 20.63 12 21.72V21.73Z" stroke="black" stroke-width="1.5" stroke-miterlimit="10" stroke-linejoin="round"/>
<path d="M5.08 19.21C3.19 17.39 2 14.84 2 12C2 9.15998 3.18 6.60998 5.08 4.78998" stroke="black" stroke-width="1.5" stroke-miterlimit="10" stroke-linejoin="round"/>
<path d="M12 2.26999C11.89 2.18999 11.77 2.09999 11.66 2.01999C9.11002 2.10999 6.80002 3.13999 5.08002 4.79999C6.08002 5.50999 7.18002 6.06999 8.37002 6.44999C9.24002 4.78999 10.49 3.36999 12 2.27999V2.26999Z" stroke="black" stroke-width="1.5" stroke-miterlimit="10" stroke-linejoin="round"/>
<path d="M8.37002 17.56C7.18002 17.94 6.07002 18.5 5.08002 19.21C6.80002 20.86 9.11002 21.9 11.66 21.99C11.78 21.91 11.89 21.82 12 21.74C10.49 20.65 9.24002 19.23 8.37002 17.57V17.56Z" stroke="black" stroke-width="1.5" stroke-miterlimit="10" stroke-linejoin="round"/>
<path d="M8.37 6.44C7.5 8.1 7 9.99 7 12C7 14.01 7.5 15.9 8.37 17.56C9.51 17.2 10.73 17 12 17C13.27 17 14.48 17.2 15.63 17.56C16.5 15.9 17 14.01 17 12C17 9.99 16.5 8.1 15.63 6.44C14.49 6.8 13.27 7 12 7C10.73 7 9.52 6.8 8.37 6.44Z" stroke="black" stroke-width="1.5" stroke-miterlimit="10" stroke-linejoin="round"/>
<path d="M2 12H22" stroke="black" stroke-width="1.5" stroke-miterlimit="10" stroke-linecap="round" stroke-linejoin="round"/>
<path d="M12 22C17.5228 22 22 17.5228 22 12C22 6.47715 17.5228 2 12 2C6.47715 2 2 6.47715 2 12C2 17.5228 6.47715 22 12 22Z" stroke="black" stroke-width="1.5" stroke-miterlimit="10" stroke-linejoin="round"/>
</svg>

<svg width="24" height="24" fill="none" xmlns="http://www.w3.org/2000/svg"><path d="M18.92 4.79A9.978 9.978 0 0 1 22 12a9.94 9.94 0 0 1-3.08 7.21M12 2.27a12.05 12.05 0 0 1 3.63 4.17c1.19-.38 2.3-.94 3.29-1.65a9.991 9.991 0 0 0-6.58-2.78c-.12.08-.23.17-.34.25v.01ZM12 21.73l.34.25a9.943 9.943 0 0 0 6.58-2.78c-1-.71-2.1-1.27-3.29-1.65A12.05 12.05 0 0 1 12 21.72v.01ZM5.08 19.21A9.978 9.978 0 0 1 2 12a9.94 9.94 0 0 1 3.08-7.21" stroke="#000" stroke-width="1.5" stroke-miterlimit="10" stroke-linejoin="round"/><path d="m12 2.27-.34-.25A9.943 9.943 0 0 0 5.08 4.8c1 .71 2.1 1.27 3.29 1.65A12.05 12.05 0 0 1 12 2.28v-.01ZM8.37 17.56c-1.19.38-2.3.94-3.29 1.65a9.991 9.991 0 0 0 6.58 2.78c.12-.08.23-.17.34-.25a12.05 12.05 0 0 1-3.63-4.17v-.01Z" stroke="#000" stroke-width="1.5" stroke-miterlimit="10" stroke-linejoin="round"/><path d="M8.37 6.44C7.5 8.1 7 9.99 7 12s.5 3.9 1.37 5.56a12.04 12.04 0 0 1 7.26 0C16.5 15.9 17 14.01 17 12s-.5-3.9-1.37-5.56a12.04 12.04 0 0 1-7.26 0Z" stroke="#000" stroke-width="1.5" stroke-miterlimit="10" stroke-linejoin="round"/><path d="M2 12h20" stroke="#000" stroke-width="1.5" stroke-miterlimit="10" stroke-linecap="round" stroke-linejoin="round"/><path d="M12 22c5.523 0 10-4.477 10-10S17.523 2 12 2 2 6.477 2 12s4.477 10 10 10Z" stroke="#000" stroke-width="1.5" stroke-miterlimit="10" stroke-linejoin="round"/></svg>
